Simply-White-Circles/scalable/devices/printer-network.svg

<svg xmlns="http://www.w3.org/2000/svg" width="48" height="48" viewBox="0 0 12.7 12.7"><path d="M6.344.073a6.29 6.29 0 0 0-6.29 6.29 6.29 6.29 0 0 0 6.29 6.288 6.29 6.29 0 0 0 6.29-6.289 6.29 6.29 0 0 0-6.29-6.29zm-.018.936a5.407 5.407 0 0 1 5.407 5.407 5.407 5.407 0 0 1-1.355 3.574H6.776V8.21h1.388v-.94H4.41v.94h1.49v1.78H2.276A5.407 5.407 0 0 1 .92 6.416 5.407 5.407 0 0 1 6.326 1.01zM4.191 2.361V4.9h-.517V3.867h-.517c-.259 0-.517.259-.517.518v2.07c0 .258.258.517.517.517h6.208c.259 0 .518-.259.518-.518v-2.07c0-.258-.259-.517-.518-.517h-.517v1.036h-.517V2.36H4.19zm.466.438h3.215v2.103H4.657V2.799zm-1.5 7.991h6.336a5.407 5.407 0 0 1-3.167 1.033 5.407 5.407 0 0 1-3.17-1.033z" fill="#e6e6e6"/></svg>

<?xml version="1.0" encoding="UTF-8" standalone="no"?>
<svg
   xmlns:dc="http://purl.org/dc/elements/1.1/"
   xmlns:cc="http://creativecommons.org/ns#"
   xmlns:rdf="http://www.w3.org/1999/02/22-rdf-syntax-ns#"
   xmlns:svg="http://www.w3.org/2000/svg"
   xmlns="http://www.w3.org/2000/svg"
   xmlns:sodipodi="http://sodipodi.sourceforge.net/DTD/sodipodi-0.dtd"
   xmlns:inkscape="http://www.inkscape.org/namespaces/inkscape"
   width="48"
   height="48"
   viewBox="0 0 12.7 12.7"
   version="1.1"
   id="svg4"
   sodipodi:docname="printer-network.svg"
   inkscape:version="0.92.4 (5da689c313, 2019-01-14)">
  <metadata
     id="metadata10">
    <rdf:RDF>
      <cc:Work
         rdf:about="">
        <dc:format>image/svg+xml</dc:format>
        <dc:type
           rdf:resource="http://purl.org/dc/dcmitype/StillImage" />
        <dc:title></dc:title>
      </cc:Work>
    </rdf:RDF>
  </metadata>
  <defs
     id="defs8" />
  <sodipodi:namedview
     pagecolor="#ffffff"
     bordercolor="#666666"
     borderopacity="1"
     objecttolerance="10"
     gridtolerance="10"
     guidetolerance="10"
     inkscape:pageopacity="0"
     inkscape:pageshadow="2"
     inkscape:window-width="1087"
     inkscape:window-height="480"
     id="namedview6"
     showgrid="false"
     inkscape:zoom="4.9166667"
     inkscape:cx="2.1355932"
     inkscape:cy="24"
     inkscape:window-x="0"
     inkscape:window-y="25"
     inkscape:window-maximized="0"
     inkscape:current-layer="svg4" />
  <path
     d="m 6.344,0.073 a 6.29,6.29 0 0 0 -6.29,6.29 6.29,6.29 0 0 0 6.29,6.288 6.29,6.29 0 0 0 6.29,-6.289 6.29,6.29 0 0 0 -6.29,-6.29 z M 6.326,1.009 A 5.407,5.407 0 0 1 11.733,6.416 5.407,5.407 0 0 1 10.378,9.99 H 6.776 V 8.21 H 8.164 V 7.27 H 4.41 V 8.21 H 5.9 V 9.99 H 2.276 A 5.407,5.407 0 0 1 0.92,6.416 5.407,5.407 0 0 1 6.326,1.01 Z M 4.191,2.361 V 4.9 H 3.674 V 3.867 H 3.157 C 2.898,3.867 2.64,4.126 2.64,4.385 v 2.07 c 0,0.258 0.258,0.517 0.517,0.517 h 6.208 c 0.259,0 0.518,-0.259 0.518,-0.518 V 4.384 C 9.883,4.126 9.624,3.867 9.365,3.867 H 8.848 V 4.903 H 8.331 V 2.36 H 4.19 Z M 4.657,2.799 H 7.872 V 4.902 H 4.657 Z m -1.5,7.991 H 9.493 A 5.407,5.407 0 0 1 6.326,11.823 5.407,5.407 0 0 1 3.156,10.79 Z"
     id="path2"
     inkscape:connector-curvature="0"
     style="fill:#e6e6e6" />
</svg>
